!!!SOCIAL_FUNCTION:	songs for little children
!!!PDT:	1939
!!!OTL: No_120_"Go_to_Sleep".krn
!!!LANG: Non-Tone
!!!LING_GROUP: Wakashan
!!!REG: Pacific Northwest
**kern
*staff1
=1-
*clefF4
*k[f#c#g#]
*M3/4
2.A\
=2
8A\L
8A\J
8.A\L
16A\Jk
8G#\
8r
=3
2.A\
=4||
*M2/4
16G#\LK
8.G#\J
8.F#\L
16F#\Jk
=5
4F#\
8r
8B\
=6
4c#\
8B\L
8A\J
=7
4G#\
8r
8G#\
=8||
*M3/4
4A\
8G#\L
8F#\J
8F#\
8r
=9||
*M2/4
2F#\
=10||
*M3/4
4A\
8.A\L
16A\Jk
8.G#\L
16F#\Jk
=11
2.A\
=12
16A\LK
8.G#\J
8G#\
8r
8F#\
8r
=13
2.r
=14
2.F#\
=15
4A\
8.A\L
16A\Jk
8.G#\L
16F#\Jk
=16
2.A\
=17||
*M2/4
4G#\
4F#\
=18
2F#\
=19
4c#\
8B\L
8A\J
=20
4G#\
8r
8G#\
=21||
*M3/4
4A\
8G#\L
8F#\J
8F#\
8r
=22||
*M2/4
2F#\
=23||
*M3/4
4A\
8.A\L
16A\Jk
8.G#\L
16F#\Jk
=24
2.A\
=25
16A\LK
8.G#\J
8G#\
8r
8F#\
8r
==
*-
